X:1
T:Watermellon Man
T:Watermellon Man
C:Herbie Hancock
Z:All Rights Reserved
L:1/8
M:2/2
K:C
V:1 treble nm="Piano" snm="Pno."
%%MIDI program 0
V:1
"C7" _B8 | z2 CC F G2 C- | C6 z2 | z8 |"F7" c8 | z2 CC F G2 C- |"C7" C6 z2 | z8 |"G7" z2 GG d2 e2 | %9
w: He!|Wa- ter- mel- lon man,|_||hey!|wa- ter- mel- lon man,|_||Bring me one that|
"F7" dccA c2 d2 |"G7" z2 GG d2 _e2 |"F7" dccA G2 A2 |"G7" z2 GG d2 _e2 |"F7" c2 CC"G7" F G2 C- | %14
w: rat- tles when you lug it,|One that's erd and|juic- y when you plug it.|Do you un- er-|stand Wat- er- mel- lon man.|
"C7" C6 z2 |"C7" _B8 | z2 CC F G2 C- | C6 z2 | z8 |"F7" c8 | z2 CC F G2 C- |"C7" C6 z2 | z8 | %23
w: _|Hey!|Wa ter mel lon man,|_||Hey!|wa ter mel lon man,|_||
"G7" z2 GG d2 e2 |"F7" dccA c2 d2 |"G7" z2 GG d2 _e2 |"F7" dccA G2 A2 |"G7" z2 GG d2 _e2 | %28
w: Hot and both- ered|need a lit- tle cool- in',|When I hear you|call I start to drool- in'.|Do you un- er-|
"F7" c2 CC"G7" F G2 C- |"C7" C6 z2 |] %30
w: stand Wat- er- mel- lon man.|_|

